storage/app/icons/phosphoricons/light/film-strip-light.svg

<svg xmlns="http://www.w3.org/2000/svg" fill="currentColor" viewBox="0 0 256 256"><path d="M216 42H40a14 14 0 0 0-14 14v144a14 14 0 0 0 14 14h176a14 14 0 0 0 14-14V56a14 14 0 0 0-14-14M38 86h84v84H38Zm96-12V54h36v20Zm-12 0H86V54h36Zm0 108v20H86v-20Zm12 0h36v20h-36Zm0-12V86h84v84Zm84-114v18h-36V54h34a2 2 0 0 1 2 2M40 54h34v20H38V56a2 2 0 0 1 2-2m-2 146v-18h36v20H40a2 2 0 0 1-2-2m178 2h-34v-20h36v18a2 2 0 0 1-2 2"/></svg>

<svg xmlns="http://www.w3.org/2000/svg" viewBox="0 0 256 256" fill="currentColor"><path d="M216,42H40A14,14,0,0,0,26,56V200a14,14,0,0,0,14,14H216a14,14,0,0,0,14-14V56A14,14,0,0,0,216,42ZM38,86h84v84H38Zm96-12V54h36V74Zm-12,0H86V54h36Zm0,108v20H86V182Zm12,0h36v20H134Zm0-12V86h84v84ZM218,56V74H182V54h34A2,2,0,0,1,218,56ZM40,54H74V74H38V56A2,2,0,0,1,40,54ZM38,200V182H74v20H40A2,2,0,0,1,38,200Zm178,2H182V182h36v18A2,2,0,0,1,216,202Z"/></svg>
